flaticon/constructions/paint-roller-2.svg

<svg xmlns="http://www.w3.org/2000/svg" width="32" height="32" viewBox="0 0 24 24">
    <path d="M8.738281 1.320312L7.941406 2.121094C7.78125 2.28125 7.78125 2.519531 7.941406 2.679688 8.019531 2.761719 8.140625 2.800781 8.21875 2.800781 8.339844 2.800781 8.421875 2.761719 8.5 2.679688L9.300781 1.878906C9.460938 1.71875 9.460938 1.480469 9.300781 1.320312 9.140625 1.160156 8.898438 1.160156 8.738281 1.320312zM11.539062 1.320312L10.738281 2.121094C10.578125 2.28125 10.578125 2.519531 10.738281 2.679688 10.820312 2.761719 10.898438 2.800781 11.019531 2.800781 11.140625 2.800781 11.21875 2.761719 11.300781 2.679688L12.101562 1.878906C12.261719 1.71875 12.261719 1.480469 12.101562 1.320312 11.941406 1.160156 11.699219 1.160156 11.539062 1.320312zM14.339844 1.320312L13.539062 2.121094C13.378906 2.28125 13.378906 2.519531 13.539062 2.679688 13.621094 2.761719 13.699219 2.800781 13.820312 2.800781 13.941406 2.800781 14.019531 2.761719 14.101562 2.679688L14.898438 1.878906C15.058594 1.71875 15.058594 1.480469 14.898438 1.320312 14.738281 1.160156 14.5 1.160156 14.339844 1.320312zM14.339844 1.320312"/>
    <path d="M 17.019531 1.664062 L 17.019531 1.199219 C 17.019531 0.519531 16.5 0 15.820312 0 L 7.019531 0 C 6.339844 0 5.820312 0.519531 5.820312 1.199219 L 5.820312 2.800781 C 5.820312 3.480469 6.378906 4 7.019531 4 L 7.019531 6.398438 C 7.019531 7.28125 7.738281 8 8.621094 8 C 9.5 8 10.21875 7.28125 10.21875 6.398438 L 10.21875 6.199219 C 10.460938 6.320312 10.738281 6.398438 11.019531 6.398438 C 11.898438 6.398438 12.621094 5.679688 12.621094 4.800781 L 12.621094 4 L 15.820312 4 C 16.5 4 17.019531 3.480469 17.019531 2.800781 L 17.019531 2.53125 C 17.238281 2.675781 17.378906 2.921875 17.378906 3.199219 L 17.378906 4.359375 C 17.378906 4.679688 17.21875 4.921875 16.460938 5.199219 C 16.460938 5.238281 16.421875 5.238281 16.421875 5.238281 L 12.019531 7.640625 C 11.421875 8 11.019531 8.601562 11.019531 9.199219 L 11.019531 15.199219 L 9.019531 15.199219 C 8.898438 15.199219 8.78125 15.28125 8.699219 15.359375 C 8.621094 15.441406 8.578125 15.558594 8.621094 15.679688 L 9.019531 17.679688 C 9.058594 17.878906 9.21875 18 9.417969 18 L 9.820312 18 L 9.820312 22.398438 C 9.820312 23.28125 10.539062 24 11.417969 24 C 12.300781 24 13.019531 23.28125 13.019531 22.398438 L 13.019531 18 L 13.417969 18 C 13.621094 18 13.78125 17.878906 13.820312 17.679688 L 14.21875 15.679688 C 14.261719 15.558594 14.21875 15.441406 14.140625 15.359375 C 14.058594 15.238281 13.941406 15.199219 13.820312 15.199219 L 11.820312 15.199219 L 11.820312 9.199219 C 11.820312 8.921875 12.101562 8.558594 12.378906 8.359375 L 16.738281 5.960938 C 17.179688 5.800781 18.179688 5.441406 18.179688 4.398438 L 18.179688 3.199219 C 18.179688 2.472656 17.6875 1.855469 17.019531 1.664062 Z M 11.820312 4.800781 C 11.820312 5.238281 11.460938 5.601562 11.019531 5.601562 C 10.578125 5.601562 10.21875 5.238281 10.21875 4.800781 C 10.21875 4.558594 10.058594 4.398438 9.820312 4.398438 C 9.578125 4.398438 9.421875 4.558594 9.421875 4.800781 L 9.421875 6.398438 C 9.421875 6.839844 9.058594 7.199219 8.621094 7.199219 C 8.179688 7.199219 7.820312 6.839844 7.820312 6.398438 L 7.820312 4 L 11.820312 4 Z M 15.820312 3.199219 L 7.019531 3.199219 C 6.78125 3.199219 6.621094 3.039062 6.621094 2.800781 L 6.621094 1.199219 C 6.621094 1 6.820312 0.800781 7.019531 0.800781 L 15.820312 0.800781 C 16.058594 0.800781 16.21875 0.960938 16.21875 1.199219 L 16.21875 1.8125 C 16.195312 1.867188 16.179688 1.929688 16.179688 2 C 16.179688 2.070312 16.195312 2.132812 16.21875 2.1875 L 16.21875 2.800781 C 16.21875 3.039062 16.058594 3.199219 15.820312 3.199219 Z M 13.101562 17.199219 L 12.621094 17.199219 C 12.378906 17.199219 12.21875 17.359375 12.21875 17.601562 L 12.21875 22.398438 C 12.21875 22.839844 11.859375 23.199219 11.421875 23.199219 C 10.980469 23.199219 10.621094 22.839844 10.621094 22.398438 L 10.621094 22 L 11.019531 22 C 11.261719 22 11.421875 21.839844 11.421875 21.601562 C 11.421875 21.359375 11.261719 21.199219 11.019531 21.199219 L 10.621094 21.199219 L 10.621094 20.398438 L 11.019531 20.398438 C 11.261719 20.398438 11.421875 20.238281 11.421875 20 C 11.421875 19.761719 11.261719 19.601562 11.019531 19.601562 L 10.621094 19.601562 L 10.621094 17.601562 C 10.621094 17.359375 10.460938 17.199219 10.21875 17.199219 L 9.738281 17.199219 L 9.5 16 L 13.339844 16 Z M 13.101562 17.199219"/>
</svg>

<svg xmlns="http://www.w3.org/2000/svg" width="32" height="32" viewBox="0 0 24 24">
    <path d="M8.738 1.32l-.797.801a.385.385 0 0 0 0 .559c.079.082.2.12.278.12.12 0 .203-.038.281-.12l.8-.801a.385.385 0 0 0 0-.559.39.39 0 0 0-.562 0zm0 0M11.54 1.32l-.802.801a.385.385 0 0 0 0 .559c.082.082.16.12.282.12.12 0 .199-.038.28-.12l.802-.801a.385.385 0 0 0 0-.559.39.39 0 0 0-.563 0zm0 0M14.34 1.32l-.8.801a.385.385 0 0 0 0 .559c.081.082.16.12.28.12.121 0 .2-.038.282-.12l.796-.801a.385.385 0 0 0 0-.559.385.385 0 0 0-.558 0zm0 0"/>
    <path d="M17.02 1.664V1.2C17.02.52 16.5 0 15.82 0h-8.8c-.68 0-1.2.52-1.2 1.2v1.6c0 .68.559 1.2 1.2 1.2v2.398C7.02 7.281 7.738 8 8.62 8c.879 0 1.598-.719 1.598-1.602V6.2c.242.121.52.2.8.2.88 0 1.602-.72 1.602-1.598V4h3.2c.679 0 1.199-.52 1.199-1.2v-.269c.218.145.359.39.359.668v1.16c0 .32-.16.563-.918.84 0 .04-.04.04-.04.04L12.02 7.64c-.598.359-1 .96-1 1.558v6h-2c-.122 0-.239.082-.32.16a.31.31 0 0 0-.079.32l.399 2c.039.2.199.321.398.321h.402v4.398c0 .883.72 1.602 1.598 1.602.883 0 1.602-.719 1.602-1.602V18h.398a.39.39 0 0 0 .402-.32l.399-2a.31.31 0 0 0-.078-.32.363.363 0 0 0-.32-.16h-2v-6c0-.278.28-.641.558-.84l4.36-2.4c.44-.16 1.44-.519 1.44-1.562V3.2c0-.726-.491-1.344-1.16-1.535zm-5.2 3.137c0 .437-.36.8-.8.8a.804.804 0 0 1-.801-.8c0-.242-.16-.403-.399-.403-.242 0-.398.16-.398.403v1.597c0 .442-.363.801-.8.801-.442 0-.802-.36-.802-.8V4h4zm4-1.602h-8.8c-.239 0-.399-.16-.399-.398V1.199c0-.199.2-.398.399-.398h8.8c.239 0 .399.16.399.398v.613a.472.472 0 0 0 0 .375v.614c0 .238-.16.398-.399.398zm-2.718 14h-.48c-.243 0-.403.16-.403.403v4.796c0 .442-.36.801-.797.801-.442 0-.8-.36-.8-.8V22h.398c.242 0 .402-.16.402-.398 0-.243-.16-.403-.402-.403h-.399v-.8h.399c.242 0 .402-.16.402-.399 0-.238-.16-.398-.402-.398h-.399v-2c0-.243-.16-.403-.402-.403h-.48L9.5 16h3.84zm0 0"/>
</svg>
